src/assets/img/index/icons/nano.svg

<svg width="140" height="140" viewBox="0 0 140 140" fill="none"
    xmlns="http://www.w3.org/2000/svg">
    <g filter="url(#filter0_d)">
        <circle cx="70" cy="66" r="50" fill="white"/>
    </g>
    <path d="M100 78.377V80.9999C100 81.4837 99.8412 81.954 99.547 82.3375C99.2529 82.721 98.8405 82.9962 98.374 83.1201V83.1201C90.2412 85.2949 81.6817 85.2949 73.5489 83.1201V83.1201C73.0828 82.9955 72.6707 82.7202 72.3767 82.3368C72.0827 81.9534 71.9231 81.4835 71.9229 80.9999V78.377" stroke="#A29EC0" stroke-width="2" stroke-miterlimit="10" stroke-linecap="round"/>
    <path d="M100 85.6257V88.2487C100 88.7325 99.8412 89.2028 99.547 89.5863C99.2529 89.9698 98.8405 90.245 98.374 90.3689V90.3689C90.2412 92.5436 81.6817 92.5436 73.5489 90.3689V90.3689C73.0828 90.2443 72.6707 89.969 72.3767 89.5856C72.0827 89.2022 71.9231 88.7323 71.9229 88.2487V85.6257" stroke="#A29EC0" stroke-width="2" stroke-miterlimit="10" stroke-linecap="round"/>
    <path d="M85.9549 77.585C93.7071 77.585 99.9915 75.801 99.9915 73.6002C99.9915 71.3995 93.7071 69.6155 85.9549 69.6155C78.2028 69.6155 71.9185 71.3995 71.9185 73.6002C71.9185 75.801 78.2028 77.585 85.9549 77.585Z" stroke="#A29EC0" stroke-width="2" stroke-miterlimit="10" stroke-linecap="round"/>
    <path d="M85.9549 75.0751C80.9389 75.0751 77.3315 74.3041 75.5049 73.6044C77.3441 72.9046 80.964 72.1337 85.9549 72.1337C90.9459 72.1337 94.5782 72.9046 96.4049 73.6044C94.5657 74.3041 90.9584 75.0751 85.9549 75.0751Z" fill="#B88DFC"/>
    <path d="M57.0459 68.3836C57.8724 69.4793 58.9643 70.3452 60.2182 70.8994C61.4721 71.4535 62.8464 71.6775 64.2108 71.55C65.5752 71.4226 66.8846 70.948 68.0148 70.1711C69.1449 69.3943 70.0584 68.341 70.6687 67.1111C71.279 65.8812 71.5659 64.5155 71.5021 63.1433C71.4382 61.7712 71.0259 60.4381 70.3041 59.2704C69.5823 58.1028 68.575 57.1393 67.3777 56.4712C66.1803 55.8031 64.8326 55.4527 63.4622 55.453" stroke="#A29EC0" stroke-width="2" stroke-linecap="round" stroke-linejoin="round"/>
    <path d="M51.0229 68.9995C50.8071 68.9994 50.5966 68.9325 50.42 68.808C50.2435 68.6836 50.1095 68.5075 50.0364 68.304C49.3815 66.456 49.113 64.4927 49.2477 62.5362C49.3823 60.5798 49.9171 58.672 50.8189 56.9317C51.7207 55.1913 52.9702 53.6557 54.4896 52.4202C56.0089 51.1847 57.7656 50.2759 59.6505 49.7503C59.9176 49.6764 60.2032 49.7119 60.4442 49.849C60.6853 49.9861 60.8621 50.2136 60.9358 50.4814C61.0096 50.7492 60.9741 51.0355 60.8373 51.2771C60.7005 51.5187 60.4736 51.696 60.2064 51.7699C58.5975 52.2177 57.0976 52.9924 55.8 54.046C54.5024 55.0995 53.435 56.4094 52.6638 57.894C51.8927 59.3787 51.4344 61.0065 51.3175 62.6762C51.2006 64.346 51.4276 66.022 51.9843 67.6C52.0308 67.7296 52.0513 67.8671 52.0448 68.0046C52.0382 68.1422 52.0047 68.2771 51.9461 68.4016C51.8874 68.5262 51.8049 68.6379 51.7032 68.7304C51.6014 68.8229 51.4825 68.8944 51.3531 68.9408C51.2465 68.9765 51.1352 68.9963 51.0229 68.9995Z" fill="#B88DFC"/>
    <path d="M64.081 63.5189C64.081 63.6416 64.0447 63.7615 63.9768 63.8635C63.9088 63.9654 63.8122 64.0449 63.6991 64.0919C63.5861 64.1388 63.4617 64.1511 63.3417 64.1272C63.2217 64.1032 63.1115 64.0442 63.0249 63.9574C62.9384 63.8707 62.8795 63.7602 62.8556 63.6399C62.8318 63.5196 62.844 63.3949 62.8908 63.2816C62.9377 63.1683 63.0169 63.0715 63.1187 63.0033C63.2204 62.9352 63.34 62.8988 63.4624 62.8988C63.6265 62.8988 63.7838 62.9641 63.8998 63.0804C64.0158 63.1967 64.081 63.3545 64.081 63.5189V63.5189Z" stroke="#A29EC0" stroke-width="2" stroke-linecap="round" stroke-linejoin="round"/>
    <path d="M63.4623 48.3174V63.519L51.4907 72.5989" stroke="#A29EC0" stroke-width="2" stroke-linecap="round" stroke-linejoin="round"/>
    <path d="M67.5129 86.6858C62.7713 87.5189 57.8888 86.8698 53.5278 84.8265C49.1668 82.7833 45.5383 79.4448 43.1345 75.264C40.7307 71.0832 39.668 66.2624 40.0906 61.4556C40.5131 56.6488 42.4005 52.0885 45.4966 48.3935C48.5927 44.6985 52.7477 42.0476 57.398 40.8003C62.0483 39.5531 66.9687 39.7698 71.4919 41.4212C76.0151 43.0726 79.9221 46.0788 82.6829 50.0318C85.4437 53.9848 86.9246 58.6934 86.9249 63.5189C86.9243 64.5586 86.8559 65.5972 86.72 66.6279" stroke="#A29EC0" stroke-width="2" stroke-linecap="round" stroke-linejoin="round"/>
    <path d="M40.0044 63.5189H43.177" stroke="#A29EC0" stroke-width="2" stroke-linecap="round" stroke-linejoin="round"/>
    <path d="M83.748 63.5189H86.9248" stroke="#A29EC0" stroke-width="2" stroke-linecap="round" stroke-linejoin="round"/>
    <path d="M63.4624 40V43.1845" stroke="#A29EC0" stroke-width="2" stroke-linecap="round" stroke-linejoin="round"/>
    <path d="M63.4624 83.8534V87.0337" stroke="#A29EC0" stroke-width="2" stroke-linecap="round" stroke-linejoin="round"/>
    <defs>
        <filter id="filter0_d" x="0" y="0" width="140" height="140" filterUnits="userSpaceOnUse" color-interpolation-filters="sRGB">
            <feFlood flood-opacity="0" result="BackgroundImageFix"/>
            <feColorMatrix in="SourceAlpha" type="matrix" values="0 0 0 0 0 0 0 0 0 0 0 0 0 0 0 0 0 0 127 0" result="hardAlpha"/>
            <feOffset dy="4"/>
            <feGaussianBlur stdDeviation="10"/>
            <feColorMatrix type="matrix" values="0 0 0 0 0.835294 0 0 0 0 0.843137 0 0 0 0 0.886275 0 0 0 1 0"/>
            <feBlend mode="normal" in2="BackgroundImageFix" result="effect1_dropShadow"/>
            <feBlend mode="normal" in="SourceGraphic" in2="effect1_dropShadow" result="shape"/>
        </filter>
    </defs>
</svg>

<svg xmlns="http://www.w3.org/2000/svg" width="100" height="100" viewBox="0 0 100 100"><defs><style>.a{fill:#fff;}.b,.d{fill:none;stroke:#a29ec0;stroke-linecap:round;stroke-width:2px;}.b{stroke-miterlimit:10;}.c{fill:#b88dfc;}.d{stroke-linejoin:round;}</style></defs><circle class="a" cx="50" cy="50" r="50"/><path class="b" d="M100,78.38V81a2.25,2.25,0,0,1-.45,1.34,2.21,2.21,0,0,1-1.18.78h0a48.13,48.13,0,0,1-24.82,0h0a2.14,2.14,0,0,1-1.17-.78A2.2,2.2,0,0,1,71.92,81V78.38" transform="translate(-20 -16)"/><path class="b" d="M100,85.63v2.62a2.25,2.25,0,0,1-.45,1.34,2.21,2.21,0,0,1-1.18.78h0a48.13,48.13,0,0,1-24.82,0h0a2.2,2.2,0,0,1-1.63-2.12V85.63" transform="translate(-20 -16)"/><path class="b" d="M86,77.58c7.76,0,14-1.78,14-4s-6.28-4-14-4-14,1.78-14,4S78.2,77.58,86,77.58Z" transform="translate(-20 -16)"/><path class="c" d="M86,75.08A31.3,31.3,0,0,1,75.5,73.6,31.51,31.51,0,0,1,86,72.13,31.37,31.37,0,0,1,96.4,73.6,31.3,31.3,0,0,1,86,75.08Z" transform="translate(-20 -16)"/><path class="d" d="M57.05,68.38a7.89,7.89,0,0,0,3.17,2.52,8.06,8.06,0,1,0,3.24-15.45" transform="translate(-20 -16)"/><path class="c" d="M51,69a1.09,1.09,0,0,1-.6-.19A1,1,0,0,1,50,68.3a14.1,14.1,0,0,1-.79-5.76,14.28,14.28,0,0,1,10.4-12.79,1,1,0,0,1,.79.1,1,1,0,0,1,.5.63,1.11,1.11,0,0,1-.1.8,1.06,1.06,0,0,1-.63.49,12.14,12.14,0,0,0-4.41,2.28A12.25,12.25,0,0,0,52,67.6.93.93,0,0,1,52,68a1.06,1.06,0,0,1-.09.4,1,1,0,0,1-.25.33,1.13,1.13,0,0,1-.35.21A.88.88,0,0,1,51,69Z" transform="translate(-20 -16)"/><path class="d" d="M64.08,63.52a.67.67,0,0,1-.1.34.62.62,0,0,1-.28.23.63.63,0,0,1-.36,0A.76.76,0,0,1,63,64a.65.65,0,0,1-.16-.32.56.56,0,0,1,0-.36.7.7,0,0,1,.23-.28.67.67,0,0,1,.34-.1.61.61,0,0,1,.62.62Z" transform="translate(-20 -16)"/><path class="d" d="M63.46,48.32v15.2l-12,9.08" transform="translate(-20 -16)"/><path class="d" d="M67.51,86.69A23.55,23.55,0,1,1,86.92,63.52a23.09,23.09,0,0,1-.2,3.11" transform="translate(-20 -16)"/><path class="d" d="M40,63.52h3.18" transform="translate(-20 -16)"/><path class="d" d="M83.75,63.52h3.17" transform="translate(-20 -16)"/><path class="d" d="M63.46,40v3.18" transform="translate(-20 -16)"/><path class="d" d="M63.46,83.85V87" transform="translate(-20 -16)"/></svg>
